public/illustrations/coffee.svg

<svg width="117" height="268" viewBox="0 0 117 268" fill="none" xmlns="http://www.w3.org/2000/svg">
<path d="M12.954 157.686L6.63923 156.879C1.44301 156.214 -0.893174 153.339 0.310312 148.356C2.05183 141.446 4.35968 134.607 6.66755 127.755C7.09231 126.665 7.64449 125.744 8.59312 125.008C9.40017 124.258 10.4621 123.819 11.4957 123.521C13.846 122.969 14.5964 121.638 15.1486 119.571C16.3238 114.87 17.6405 110.184 18.9573 105.497C19.5378 103.147 20.5572 100.854 21.2793 98.5174C22.5536 94.114 25.7534 92.5283 30.0435 92.5C34.3336 92.4858 38.213 92.2591 42.3332 92.3724C55.9822 92.8396 69.4753 93.2927 83.1243 93.7599C84.1012 93.8873 85.2339 94.0292 86.2251 94.015C90.4868 94.1283 93.2053 96.337 94.876 99.9757C98.7413 108.754 102.635 117.391 104.419 126.75C105.268 126.863 105.934 127.231 106.614 127.457C108.298 127.67 109.757 128.576 111.031 129.737C112.305 130.898 113.112 132.427 113.48 134.041C114.741 139.776 115.987 145.637 116.808 151.456C117.388 155.817 115.378 158.125 110.875 158.691C109.275 158.918 107.562 158.975 105.835 159.045L104.32 170.84C102.833 185.777 101.332 200.714 99.9873 215.68C98.5856 229.923 97.1697 244.294 95.768 258.538L95.3291 261.907C95.1733 263.168 94.607 264.244 93.7716 265.136C92.9363 266.028 91.7328 266.58 90.4443 266.566C88.2639 266.863 86.0835 267.146 83.9597 267.019C67.6064 266.495 51.2956 265.674 35.1123 265.023L30.893 264.484C29.4913 264.3 28.2737 263.72 27.2684 262.729C26.249 261.738 25.6968 260.534 25.4419 259.203C25.0738 257.589 24.8756 255.848 24.649 254.248C23.0066 242.609 21.2227 230.971 19.8634 219.234C17.6688 199.681 15.7433 180.156 13.6903 160.631C13.5487 159.47 13.4212 158.309 13.2655 157.29L12.9257 157.672L12.954 157.686ZM23.5305 157.615C23.6863 159.782 23.7571 161.353 23.9978 162.811C26.5038 181.118 27.3958 199.652 30.6382 217.761C32.6345 228.861 33.6115 240.132 35.0132 251.444C35.4238 254.927 35.5654 254.942 38.9634 255.097C50.1771 255.536 61.2492 256.102 72.4628 256.541L84.3844 257.079L84.9083 253.002C85.7436 244.266 86.4233 235.643 87.4002 226.907C87.9383 222.688 89.0568 218.412 89.609 214.207C90.1612 210.002 90.6992 203.503 91.2514 198.137C91.4496 196.594 91.5204 194.895 91.5345 193.748C88.8302 192.545 86.6781 191.554 84.526 190.562C83.9597 190.492 83.2659 190.407 82.6712 190.605C80.8589 191.369 78.9617 191.695 77.0078 191.299C75.0397 191.044 73.284 190.251 71.8823 188.934C71.5992 188.891 71.2877 189.147 70.9903 189.246C63.4013 193.833 54.9061 188.892 54.9769 178.343C55.1185 177.225 55.2601 176.092 56.1096 175.059C56.8034 174.153 57.8653 173.572 59.0546 173.289C60.2439 173.006 61.4757 173.317 62.5518 173.884C63.5995 174.591 64.3358 175.54 64.7605 176.729C65.1994 177.791 65.3552 178.797 65.6808 179.561C68.2719 178.329 70.4665 176.743 72.9584 176.22C76.045 175.469 77.5175 178.513 79.2873 180.312C83.4358 178.372 87.7967 179.221 92.3841 182.846C93.5592 174.861 94.253 167.243 95.0176 159.06L23.3889 157.715L23.5447 157.587L23.5305 157.615ZM11.4815 146.926C43.3526 147.733 74.3884 148.44 105.906 148.639C105.325 145.425 104.801 142.791 104.277 140.158C104.334 139.733 104.107 139.28 103.867 138.969C103.626 138.657 103.371 138.331 103.13 138.02C102.89 137.708 102.479 137.51 102.054 137.454L100.794 137.298C92.9787 137.014 85.1632 136.717 77.3759 136.292C59.2245 135.386 41.0589 134.48 22.7518 133.702C20.3448 133.532 17.9095 133.645 15.4884 133.631C14.2141 138.034 12.9823 142.013 11.3541 146.94H11.4957L11.4815 146.926ZM83.28 103.615C81.5952 112.251 77.5741 118.014 69.4754 117.688C61.235 117.348 59.4086 110.538 58.021 103.515C49.2568 102.822 40.5634 102.694 31.7992 103.147C31.0771 103.204 29.9161 104.478 29.6612 105.299C28.1321 110.524 26.7587 115.635 25.3711 120.874C25.2579 121.723 25.1588 122.559 25.3287 123.437C33.1301 123.861 40.6342 124.258 48.1524 124.654C55.6707 125.051 63.3447 125.319 70.8771 125.574C78.5511 125.843 85.7153 126.764 93.3327 126.325C91.8885 118.722 88.6887 112.449 85.956 105.965C85.6304 105.214 84.5402 104.79 83.2659 103.615H83.28Z" fill="#102185"/>
<path d="M91.0532 27.54C93.4035 29.2673 95.3998 31.5188 96.6316 34.1098C98.005 36.715 98.6563 39.5041 98.6988 42.5057C98.8121 49.3727 97.9484 56.1122 94.3238 62.073C92.6106 65.4144 89.8497 68.062 86.3383 69.761C85.418 70.2141 84.6251 70.823 83.9596 71.6017C83.2942 72.3804 82.8836 73.3148 82.6146 74.2775C81.935 76.1889 81.0005 77.9307 79.6696 79.4598C78.3245 81.0031 76.7671 82.0791 74.9264 82.9853C72.7602 84.2737 70.1408 84.6559 67.6206 84.3303C65.1003 84.0046 62.8066 82.8577 60.9094 81.0454C59.2528 79.5446 57.7661 77.789 56.7326 75.7926C55.699 73.7962 55.1326 71.5874 55.0052 69.2937C54.8353 67.269 53.9291 65.4425 52.5416 63.9842C46.0994 57.4429 45.1508 49.3301 46.8215 40.6934C47.3454 36.6157 49.3984 32.8919 52.4708 30.0036C53.4336 29.1257 53.3911 27.2713 53.5893 25.728C54.5663 21.4238 54.7504 16.737 56.4069 12.6735C58.0635 8.60996 60.9518 5.12708 64.803 2.90418C68.5126 0.667123 72.9301 -0.33811 77.4325 0.100807C84.3561 0.709627 91.0107 7.70397 91.4637 15.3213C91.5062 19.4698 91.2655 23.5757 90.7417 27.6534L91.039 27.5542L91.0532 27.54ZM56.9449 44.1342C56.2936 49.1888 56.5768 53.6486 60.3288 56.7068C61.7447 57.882 62.9907 59.3261 63.7977 60.8694C64.5765 62.5401 65.072 64.3099 65.1145 66.1789C65.2844 68.2035 65.8932 70.1291 66.9551 71.8423C68.3851 74.0227 70.3957 73.9943 71.9673 71.7714C72.8451 70.4547 73.6238 68.8406 73.992 67.1841C74.176 65.7824 74.9264 64.3099 75.9175 63.2905C76.9086 62.271 78.2962 61.4501 79.7687 61.0678C81.3969 60.5581 82.9402 59.7651 84.2428 58.505C85.4038 57.2307 86.3241 55.6309 86.6781 53.9602C87.5843 50.2223 88.2073 46.4561 88.278 42.6049C88.4621 41.2032 87.9382 39.7025 87.2445 38.4707C86.5507 37.2389 85.5313 36.2479 84.1862 35.6532C78.636 32.2268 78.0272 30.287 80.0802 24.2696C80.7881 22.075 81.2129 19.8522 81.3686 17.5868C81.6376 12.1924 77.3193 9.07747 72.0947 10.8331C70.7355 11.3712 69.4895 12.2064 68.3568 13.2117C67.3657 14.2311 66.4879 15.548 65.8791 16.8931C64.3074 20.2628 63.6703 24.0289 64.0526 27.7951C64.4632 31.2781 63.911 34.4919 60.7536 36.7998C59.5077 37.6351 58.5024 38.7961 57.7803 39.9855C57.0441 41.3164 56.7184 42.7041 56.6759 44.12L56.9591 44.1483L56.9449 44.1342Z" fill="#102185"/>
<path d="M64.2933 208.105C63.1748 207.964 62.0845 207.539 60.9943 207.114C60.0457 206.704 59.2811 206.038 58.6865 205.104C58.2334 204.183 57.9361 203.15 58.0635 202.173C58.1909 201.196 58.6157 200.106 59.2811 199.327C59.9466 198.548 60.8669 198.109 62.0279 197.968C65.9499 197.472 69.9709 197.274 73.8362 197.203C74.9548 197.345 76.0591 197.628 76.8379 198.308C77.744 199.001 78.1829 200.049 78.4803 201.083C78.7635 202.258 78.6077 203.391 78.0414 204.452C77.475 205.529 76.5264 206.25 75.4645 206.689C71.7974 207.496 67.9887 208.162 64.2225 208.672L64.2791 208.247V208.105H64.2933Z" fill="#102185"/>
</svg>

<svg xmlns="http://www.w3.org/2000/svg" width="117" height="268" fill="none" viewBox="0 0 117 268"><path fill="#102185" d="m12.954 157.686-6.315-.807c-5.196-.665-7.532-3.54-6.329-8.523 1.742-6.91 4.05-13.749 6.358-20.601.424-1.09.976-2.011 1.925-2.747.807-.75 1.87-1.189 2.903-1.487 2.35-.552 3.1-1.883 3.653-3.95 1.175-4.701 2.492-9.387 3.808-14.074.58-2.35 1.6-4.643 2.322-6.98 1.275-4.403 4.474-5.989 8.765-6.017 4.29-.014 8.169-.24 12.29-.128 13.648.468 27.141.92 40.79 1.388.977.127 2.11.27 3.101.255 4.262.113 6.98 2.322 8.651 5.96 3.865 8.779 7.759 17.416 9.543 26.775.849.113 1.515.481 2.195.707 1.684.213 3.143 1.119 4.417 2.28s2.081 2.69 2.449 4.304c1.261 5.735 2.507 11.596 3.328 17.415.58 4.361-1.43 6.669-5.933 7.235-1.6.227-3.313.284-5.04.354l-1.515 11.795c-1.487 14.937-2.988 29.874-4.333 44.84-1.401 14.243-2.817 28.614-4.219 42.858l-.439 3.369c-.156 1.261-.722 2.337-1.557 3.229a4.51 4.51 0 0 1-3.328 1.43c-2.18.297-4.36.58-6.484.453-16.354-.524-32.664-1.345-48.848-1.996l-4.219-.539c-1.402-.184-2.62-.764-3.625-1.755-1.019-.991-1.571-2.195-1.826-3.526-.368-1.614-.566-3.355-.793-4.955-1.642-11.639-3.426-23.277-4.786-35.014-2.194-19.553-4.12-39.078-6.173-58.603-.141-1.161-.269-2.322-.425-3.341l-.34.382zm10.577-.071c.155 2.167.226 3.738.467 5.196 2.506 18.307 3.398 36.841 6.64 54.95 1.997 11.1 2.973 22.371 4.375 33.683.41 3.483.552 3.498 3.95 3.653 11.214.439 22.286 1.005 33.5 1.444l11.921.538.524-4.077c.836-8.736 1.515-17.359 2.492-26.095.538-4.219 1.657-8.495 2.209-12.7s1.09-10.704 1.642-16.07c.199-1.543.27-3.242.283-4.389a540 540 0 0 1-7.008-3.186c-.566-.07-1.26-.155-1.855.043-1.812.764-3.71 1.09-5.663.694-1.968-.255-3.724-1.048-5.126-2.365-.283-.043-.594.213-.892.312-7.589 4.587-16.084-.354-16.013-10.903.142-1.118.283-2.251 1.133-3.284.693-.906 1.755-1.487 2.945-1.77s2.42.028 3.497.595a5.64 5.64 0 0 1 2.208 2.845c.44 1.062.595 2.068.92 2.832 2.592-1.232 4.786-2.818 7.278-3.341 3.087-.751 4.56 2.293 6.33 4.092 4.148-1.94 8.509-1.091 13.096 2.534 1.175-7.985 1.869-15.603 2.634-23.786l-71.63-1.345.157-.128zm-12.05-10.689c31.872.807 62.907 1.514 94.425 1.713a463 463 0 0 0-1.629-8.481c.057-.425-.17-.878-.41-1.189-.241-.312-.496-.638-.737-.949-.24-.312-.651-.51-1.076-.566l-1.26-.156c-7.815-.284-15.63-.581-23.418-1.006-18.152-.906-36.317-1.812-54.624-2.59-2.407-.17-4.842-.057-7.264-.071a354 354 0 0 1-4.134 13.309h.142zm71.799-43.311c-1.685 8.636-5.706 14.399-13.805 14.073-8.24-.34-10.066-7.15-11.454-14.173a200 200 0 0 0-26.222-.368c-.722.057-1.883 1.331-2.138 2.152-1.529 5.225-2.902 10.336-4.29 15.575-.113.849-.212 1.685-.042 2.563 7.801.424 15.305.821 22.823 1.217s15.193.665 22.725.92c7.674.269 14.838 1.19 22.456.751-1.445-7.603-4.644-13.876-7.377-20.36-.326-.751-1.416-1.175-2.69-2.35zM91.053 27.54c2.35 1.727 4.347 3.979 5.579 6.57 1.373 2.605 2.024 5.394 2.067 8.396.113 6.867-.75 13.606-4.375 19.567-1.713 3.341-4.474 5.989-7.986 7.688a7.4 7.4 0 0 0-2.378 1.84c-.666.78-1.076 1.714-1.345 2.677-.68 1.91-1.614 3.653-2.945 5.182-1.346 1.543-2.903 2.62-4.744 3.525-2.166 1.289-4.785 1.67-7.305 1.345s-4.814-1.472-6.712-3.285c-1.656-1.5-3.143-3.256-4.176-5.252-1.034-1.997-1.6-4.206-1.728-6.5-.17-2.024-1.076-3.85-2.463-5.309-6.443-6.541-7.391-14.654-5.72-23.29.523-4.078 2.576-7.802 5.649-10.69.963-.878.92-2.733 1.118-4.276.977-4.304 1.161-8.991 2.818-13.054s4.545-7.547 8.396-9.77C68.513.667 72.93-.338 77.433.101c6.923.609 13.578 7.603 14.03 15.22a89.4 89.4 0 0 1-.721 12.332l.297-.099zM56.945 44.134c-.651 5.055-.368 9.515 3.384 12.573 1.416 1.175 2.662 2.62 3.469 4.162.778 1.671 1.274 3.44 1.317 5.31.17 2.025.778 3.95 1.84 5.663 1.43 2.18 3.44 2.152 5.012-.07.878-1.317 1.657-2.931 2.025-4.588.184-1.402.934-2.874 1.925-3.893.992-1.02 2.38-1.84 3.852-2.223 1.628-.51 3.171-1.303 4.474-2.563 1.16-1.274 2.081-2.874 2.435-4.545.906-3.738 1.53-7.504 1.6-11.355.184-1.402-.34-2.902-1.034-4.134-.693-1.232-1.713-2.223-3.058-2.818-5.55-3.426-6.159-5.366-4.106-11.383a28 28 0 0 0 1.289-6.683c.269-5.395-4.05-8.51-9.274-6.754-1.36.538-2.605 1.373-3.738 2.379-.991 1.02-1.87 2.336-2.478 3.681a20.8 20.8 0 0 0-1.826 10.902c.41 3.483-.142 6.697-3.3 9.005-1.245.835-2.25 1.996-2.973 3.186-.736 1.33-1.062 2.718-1.104 4.134l.283.028z"/><path fill="#102185" d="M64.293 208.105c-1.118-.141-2.209-.566-3.299-.991-.948-.41-1.713-1.076-2.307-2.01-.454-.921-.75-1.954-.623-2.931s.552-2.067 1.217-2.846c.666-.779 1.586-1.218 2.747-1.359 3.922-.496 7.943-.694 11.808-.765 1.119.142 2.223.425 3.002 1.105.906.693 1.345 1.741 1.642 2.775.283 1.175.128 2.308-.439 3.369-.566 1.077-1.515 1.798-2.576 2.237a140 140 0 0 1-11.243 1.983l.057-.425v-.142z"/></svg>
